Pictures/search_search-icon.svg

<svg width="24" height="24" viewBox="0 0 24 24" fill="none" xmlns="http://www.w3.org/2000/svg">
<g id="003-search 2">
<g id="003-search">
<path id="Shape" fill-rule="evenodd" clip-rule="evenodd" d="M16.024 15.0588H17.1123L23.9435 21.9037L21.9037 23.9435L15.0588 17.1123V16.0308L14.6824 15.6544C13.1286 16.9891 11.1093 17.7968 8.89842 17.7968C3.98374 17.7968 0 13.8131 0 8.89842C0 3.98374 3.98381 0 8.89842 0C13.813 0 17.7968 3.98374 17.7968 8.89842C17.7968 11.1093 16.9891 13.1286 15.6475 14.6824L16.024 15.0588ZM2.73799 8.89842C2.73799 12.3003 5.49651 15.0588 8.89842 15.0588C12.3003 15.0588 15.0588 12.3003 15.0588 8.89842C15.0588 5.49651 12.3003 2.73799 8.89842 2.73799C5.49651 2.73799 2.73799 5.49651 2.73799 8.89842Z" fill="#5964E0"/>
</g>
</g>
</svg>

<svg xmlns="http://www.w3.org/2000/svg" width="24" height="24" fill="none"><path fill="#5964E0" fill-rule="evenodd" d="M16.024 15.059h1.088l6.832 6.845-2.04 2.04-6.845-6.832v-1.081l-.377-.377a8.844 8.844 0 0 1-5.784 2.143A8.898 8.898 0 0 1 0 8.898 8.898 8.898 0 0 1 8.898 0a8.898 8.898 0 0 1 8.899 8.898c0 2.211-.808 4.23-2.15 5.784l.377.377ZM2.738 8.899a6.16 6.16 0 1 0 12.322-.002 6.16 6.16 0 0 0-12.322.001Z" clip-rule="evenodd"/></svg>
